X: 36400
T: Seán Sa Cheo
R: reel
M: 4/4
K: Adorian
B/c/d|:~e2dg eA B/c/d|~e2ec ~d2BA|Beed ed B/c/d|ed ge dG B/c/d:|
|:cA~A2 DGBd|cA~A2 dGBd|cA~A2 EAcA|1 B/c/d ge dGBd:|2 B/c/d ge defg||
|:~a2 c'a bac'a|~a2c'a ~e2 ef|1 ~g2bg agbg|~g2bg efge:|2 ~g2 gf gbag|efge dG||

